X: 043
M: 6/8
L: 1/8
K: G
d2c |\
!segno!AB!f!G |\
ga!f!g |\
fgf efe |
def gag | fed e3 | d3 gag |\
fgf efe | def gag | fed e3 | d3 !segno!|]

